!!!!SEGMENT: pl-kk--kk-i-7--031_pacelli-asprilio--rorate-caeli.krn
!!!cenid: 16xx:821
!!!COM: Pacelli, Asprilio
!!!COM-rismID: pe30009570
!!!CDT: 1570-1623/05/04
!!!CNT: Italian
!!!OTL: Rorate caeli
!!!PDT:
!!!AGN: Sacred
!!!YEC: Copyright 2022 Narodowy Instytut Fryderyka Chopina (https://polishscores.org)
!!!YEM: License CC-BY-4.0 (https://creativecommons.org/licenses/by/4.0)
!!!SMS-siglum: PL-Kk
!!!SMS-shelfmark: Kk.I.7
!!!SMS-shelfwork: 031 W
!!!SMS-variant:
!!!SMS-altvar:
!!!NIFC-rismSourceID: 300258077
!!!NIFC-rismChildID: 300258108
!!!NIFC-islandoraID: pl-kk:1956
!!!URL-pdf-islandora: https://repozytorium.nifc.pl/islandora/object/pl-kk%3A1956/datastream/PDF/view
!!!URL-scan: https://polish.musicsources.pl/pl/lokalizacje/galeria/rekopisy/6140 @EN{Scan on Polish Music Sources Website} @PL{Skany w portalu Dziedzictwo Muzyki Polskiej w otwartym dostępie}
!!!IIIF: https://repozytorium.nifc.pl/islandora/object/pl-kk%3A1956/datastream/IIIF/view
!!!ONB-nifc: UWAGA: C (skan 0019-0020, s.33-34), A (0106, s.32-33), T(0181, s.26), B(0271-0272, s.33-34). Następny utwór: Missa
!!!AIN: 1 alto 1 bass 1 soprn 1 tenor
!!!key:
**kern	**text	**kern	**text	**kern	**text	**kern	**text
*part4	*	*part3	*	*part2	*	*part1	*
*staff4	*	*staff3	*	*staff2	*	*staff1	*
*Ibass	*	*Itenor	*	*Ialto	*	*Isoprn	*
*I"[BASSVS.]	*	*I"[TENOR.]	*	*I"[ALTVS.]	*	*I"[CANTVS.]	*
*I'[B]	*	*I'[T]	*	*I'[A]	*	*I'[C]	*
*clefF4	*	*clefC4	*	*clefC4	*	*clefC3	*
*k[]	*	*k[]	*	*k[]	*	*k[]	*
*d:	*	*d:	*	*d:	*	*d:	*
*M2/1	*	*M2/1	*	*M2/1	*	*M2/1	*
*met(C|)	*	*met(C|)	*	*met(C|)	*	*met(C|)	*
=1-	=1-	=1-	=1-	=1-	=1-	=1-	=1-
*	*	*lig	*	*	*	*	*
!!LO:TX:t=P:problem:all\right:global
!LO:TX:t=P:problem=kreska pseudotaktowa	!	!	!	!	!	!	!
!LO:TX:a:t=iedna	!	!	!	!	!	!	!
!	!	!LO:TX:t=Asprilli Pacelli ad 4 Voces AEquales.	!	!LO:TX:t=A sprilli Pacelli ad 4. Voces Aequales.	!	!LO:TX:t=Asprilli Pacelli ad 4 Voces Aequales.	!
!LO:TX:t=Asprilli Pacelli ad 4 Voces AEquales	!	!	!	!	!	!	!
*xywh-#271:7116,1689,5746,962	*	*xywh-#181:818,456,6168,980	*	*xywh-#106:1124,577,6039,959	*	*xywh-#19:7081,542,6182,904	*
1r	.	1C	Ro-	2G/	Ro-	1e	Ro-
.	.	.	.	1c	-ra-	.	.
1GG	Ro-	1D	.	.	.	1.g	-ra-
.	.	.	.	4B\	.	.	.
!	!	!	!	!LO:TX:t=P:problem=kreska pseudotaktowa	!	!	!
.	.	.	.	4A/	.	.	.
*	*	*Xlig	*	*	*	*	*
=2-	=2-	=2-	=2-	=2-	=2-	=2-	=2-
*	*	*lig	*	*2\right	*	*	*
1.D	-ra-	1D	-ra-	2B\	.	.	.
.	.	.	.	2A/	-te	4f\	.
!	!	!	!	!	!	!LO:TX:t=P:problem=kreska pseudotaktowa	!
.	.	.	.	.	.	4e\	.
.	.	1A	.	2d\	cae-	1.f	.
*2\right	*	*	*	*	*	*	*
!LO:TX:t=P:problem=kreska pseudotaktowa	!	!	!	!LO:TX:t=P:problem=kreska pseudotaktowa	!	!	!
2F\	-te	.	.	2D/	-li	.	.
*	*	*Xlig	*	*	*	*	*
=3-	=3-	=3-	=3-	=3-	=3-	=3-	=3-
1C	cae-	1c	.	2G/	de-	.	.
*	*	*	*	*	*	*2\right	*
!	!	!	!	!	!	!LO:TX:t=P:problem=kreska pseudotaktowa	!
.	.	.	.	2G/	-ſu-	2e\	-te
!LO:TX:t=P:problem=kreska pseudotaktowa	!	!LO:TX:t=P:problem=kreska pseudotaktowa	!	!	!	!	!
1FF	-li	1A	-te	2F/	-p(er)	2c/	cae-
.	.	.	.	4.C/	Ro-	2f\	-li
.	.	.	.	16BB/LL	.	.	.
!	!	!	!	!LO:TX:t=P:problem=kreska pseudotaktowa	!	!	!
.	.	.	.	16C/JJ	.	.	.
=4-	=4-	=4-	=4-	=4-	=4-	=4-	=4-
*	*	*lig	*	*	*	*	*
0r	.	1A	cae-	1D	.	1.f	de-
*	*	*	*	*lig	*	*	*
.	.	1B	.	1D	-ra-	.	.
.	.	.	.	.	.	4e\	.
.	.	.	.	.	.	4d\	.
!	!	!	!	!	!	!LO:TX:t=P:problem=kreska pseudotaktowa	!
*	*	*Xlig	*	*	*	*	*
=5-	=5-	=5-	=5-	=5-	=5-	=5-	=5-
*	*	*lig	*	*	*	*	*
!LO:TX:t=P:problem=kreska pseudotaktowa	!	!	!	!	!	!	!
1r	.	1c	.	1A	.	2e\	.
.	.	.	.	.	.	2f\	.
*	*	*	*	*Xlig	*	*	*
!	!	!	!	!LO:TX:t=P:problem=kreska pseudotaktowa	!	!	!
2r	.	1A	.	1c	-te	2.e\	-su-
*	*ij	*	*	*	*	*	*
!LO:TX:t=P:problem=kreska pseudotaktowa	!	!	!	!	!	!	!
2AA/	Ro-	.	.	.	.	.	.
.	.	.	.	.	.	8d\L	-per
.	.	.	.	.	.	8e\J	.
!	!	!	!	!	!	!LO:TX:t=P:problem=kreska pseudotaktowa	!
*	*	*Xlig	*	*	*	*	*
=6-	=6-	=6-	=6-	=6-	=6-	=6-	=6-
*	*	*lig	*	*	*	*	*
2D/	-ra-	1A	-li	2d\	cae-	2f\	.
2F\	-te	.	.	2c\	-li	2.f\	de-
!LO:TX:t=P:problem=kreska pseudotaktowa	!	!LO:TX:t=P:problem=kreska pseudotaktowa	!	!	!	!	!
1C	cae-	1G	.	2.c\	de-	.	.
.	.	.	.	.	.	8e\L	.
.	.	.	.	.	.	8d\J	.
.	.	.	.	.	.	2e\	.
.	.	.	.	4c\	-ſu-	.	.
!	!	!	!	!	!	!LO:TX:t=P:problem=kreska pseudotaktowa	!
*	*	*Xlig	*	*	*	*	*
=7-	=7-	=7-	=7-	=7-	=7-	=7-	=7-
*	*	*lig	*	*	*	*	*
!	!	!	!	!LO:TX:t=P:problem=kreska pseudotaktowa	!	!	!
2FF/	-li	1A	de-	1c	-p(er)	2.f\	.
*	*Xij	*	*	*	*	*	*
2.F\	de-	.	.	.	.	.	.
.	.	.	.	.	.	4g\	.
.	.	1c	.	2rc	.	2a\	.
8E\L	.	.	.	.	.	.	.
8D\J	.	.	.	.	.	.	.
*	*	*	*	*	*ij	*	*
!LO:TX:t=P:problem=kreska pseudotaktowa	!	!	!	!	!	!	!
2E\	.	.	.	2G/	Ro-	2g\	.
!	!	!	!	!	!	!LO:TX:t=P:problem=kreska pseudotaktowa	!
*	*	*Xlig	*	*	*	*	*
=8-	=8-	=8-	=8-	=8-	=8-	=8-	=8-
*	*	*lig	*	*	*	*	*
2F\	.	1c	-ſu-	2A/	-ra-	2f\	.
!LO:TX:t=P:problem=kreska pseudotaktowa	!	!	!	!LO:TX:t=P:problem=kreska pseudotaktowa	!	!	!
2A\	.	.	.	2c\	-te	2e\	.
2.G\	.	1B	.	2d\	cae-	1.g	.
.	.	.	.	2d\	-li	.	.
4F\	.	.	.	.	.	.	.
*	*	*Xlig	*	*	*	*	*
=9-	=9-	=9-	=9-	=9-	=9-	=9-	=9-
*	*	*lig	*	*	*	*	*
2E\	.	1c	.	4d\	de-	.	.
*	*	*	*	*custos:c	*	*	*
.	.	.	.	4c\	.	.	.
*	*	*	*	*	*	*custos:g	*
!	!	!	!	!	!	!LO:TX:t=P:problem=kreska pseudotaktowa	!
!LO:TX:t=P:problem=kreska pseudotaktowa	!	!	!	!	!	!	!
!	!	!	!	!LO:LB:g=original	!	!	!
*	*	*	*	*xywh-#106:1328,1382,5865,736	*	*	*
2C/	.	.	.	1c	-ſu-	2g\	ſu-
!	!	!	!	!	!	!LO:LB:g=original	!
*	*	*	*	*	*	*xywh-#19:7858,1329,5385,719	*
1G	.	1d	.	.	.	2g\	-per
!	!	!	!	!LO:TX:t=P:problem=kreska pseudotaktowa	!	!LO:TX:t=P:problem=kreska pseudotaktowa	!
.	.	.	.	2B\	.	2d\	et
*	*	*Xlig	*	*	*	*	*
=10-	=10-	=10-	=10-	=10-	=10-	=10-	=10-
*	*	*lig	*	*	*	*	*
1C	-ſu-	1c	.	2c\	-per	4e\	nu-
*	*	*	*	*	*Xij	*	*
.	.	.	.	.	.	4d\	.
.	.	.	.	2G/	et	4e\	.
.	.	.	.	.	.	4f\	.
0GG	-per	1d	.	4B\	nu-	2g\	.
.	.	.	.	4A/	.	.	.
!	!	!	!	!	!	!LO:TX:t=P:problem=kreska pseudotaktowa	!
.	.	.	.	4B\	.	2G/	-bes
!	!	!	!	!LO:TX:t=P:problem=kreska pseudotaktowa	!	!	!
.	.	.	.	4c\	.	.	.
*	*	*Xlig	*	*	*	*	*
=11-	=11-	=11-	=11-	=11-	=11-	=11-	=11-
*	*	*lig	*	*	*	*	*
*custos:C	*	*	*	*	*	*	*
.	.	1d	-per	2d\	-bes	2B/	plu-
.	.	.	.	2B\	.	2G/	-ant
!LO:LB:g=original	!	!LO:TX:t=P:problem=kreska pseudotaktowa	!	!	!	!	!
*xywh-#271:7145,2432,5956,762	*	*	*	*	*	*	*
2rBB	.	1c	.	0e	plu-	0g	iu-
!LO:TX:t=P:problem=kreska pseudotaktowa	!	!	!	!	!	!	!
2C/	et	.	.	.	.	.	.
*	*	*Xlig	*	*	*	*	*
=12-	=12-	=12-	=12-	=12-	=12-	=12-	=12-
4E\	nu-	1G	et	.	.	.	.
4D\	.	.	.	.	.	.	.
4E\	.	.	.	.	.	.	.
4F\	.	.	.	.	.	.	.
*	*	*lig	*	*	*	*	*
!	!	!	!	!	!	!LO:TX:t=P:problem=kreska pseudotaktowa	!
2G\	.	1B	nu-	2d\	-ant	1g	-ſtum
!LO:TX:t=P:problem=kreska pseudotaktowa	!	!	!	!	!	!	!
2E\	-bes	.	.	1e\	iu-	.	.
=13-	=13-	=13-	=13-	=13-	=13-	=13-	=13-
*	*	*custos:A	*	*	*	*	*
4A\	plu-	1c	.	.	.	1r	.
4G\	.	.	.	.	.	.	.
!	!	!	!	!LO:TX:t=P:problem=kreska pseudotaktowa	!	!	!
4F\	.	.	.	2A/	-ſtum	.	.
!LO:TX:t=P:problem=kreska pseudotaktowa	!	!	!	!	!	!	!
4E\	.	.	.	.	.	.	.
*	*	*Xlig	*	*	*	*	*
!	!	!LO:LB:g=original	!	!	!	!	!
*	*	*xywh-#181:1010,1280,5964,788	*	*	*	*	*
4F\	.	1A	.	1r	.	1c	et
4G\	.	.	.	.	.	.	.
4A\	.	.	.	.	.	.	.
4B\	.	.	.	.	.	.	.
=14-	=14-	=14-	=14-	=14-	=14-	=14-	=14-
!	!	!LO:TX:t=P:problem=kreska pseudotaktowa	!	!	!	!	!
2c\	.	1A	-bes	1r	.	4e\	nu-
.	.	.	.	.	.	4d\	.
!LO:TX:t=P:problem=kreska pseudotaktowa	!	!	!	!	!	!	!
2A\	-ant	.	.	.	.	4e\	.
!	!	!	!	!	!	!LO:TX:t=P:problem=kreska pseudotaktowa	!
.	.	.	.	.	.	4f\	.
*	*	*lig	*	*	*	*	*
1G	iu-	1B	plu-	2rF	.	2g\	.
!	!	!	!	!LO:TX:t=P:problem=kreska pseudotaktowa	!	!	!
.	.	.	.	2G/	et	2e\	-bes
=15-	=15-	=15-	=15-	=15-	=15-	=15-	=15-
1F	-ſtu(m)	1c	.	4A/	nu-	4f\	plu-
.	.	.	.	4G/	.	8e\L	.
.	.	.	.	.	.	8d\J	.
.	.	.	.	4A/	.	4c/	.
!	!	!	!	!	!	!LO:TX:t=P:problem=kreska pseudotaktowa	!
.	.	.	.	4B\	.	4d\	.
*	*	*Xlig	*	*	*	*	*
2r	.	1A	ant	1c	-bes	2e\	.
!LO:TX:t=P:problem=kreska pseudotaktowa	!	!	!	!	!	!	!
2FF/	et	.	.	.	.	2f\	.
=16-	=16-	=16-	=16-	=16-	=16-	=16-	=16-
!	!	!LO:TX:t=P:problem=kreska pseudotaktowa	!	!LO:TX:t=P:problem=kreska pseudotaktowa	!	!	!
4AA/	nu-	1A	.	1c	.	2.e\	.
4GG/	.	.	.	.	.	.	.
4AA/	.	.	.	.	.	.	.
*	*	*	*	*	*	*custos:c	*
!	!	!	!	!	!	!LO:TX:t=P:problem=kreska pseudotaktowa	!
4BB/	.	.	.	.	.	4d\	.
*	*	*lig	*	*	*	*	*
!	!	!	!	!	!	!LO:LB:g=original	!
*	*	*	*	*	*	*xywh-#19:7149,1893,6016,719	*
2C/	.	1G	iu-	2rF	.	2c/	.
*	*	*	*	*	*ij	*	*
!LO:TX:t=P:problem=kreska pseudotaktowa	!	!	!	!LO:TX:t=P:problem=kreska pseudotaktowa	!	!	!
2E\	-bes	.	.	2G/	et	2B/	-ant
=17-	=17-	=17-	=17-	=17-	=17-	=17-	=17-
4D/	plu-	1F	.	4A/	nu-	2d\	iu-
4E\	.	.	.	4G/	.	.	.
2.F\	.	.	.	4A/	.	2c/	-ſtum
.	.	.	.	4B\	.	.	.
*	*	*Xlig	*	*	*	*	*
*	*	*lig	*	*	*	*	*
!	!	!	!	!	!	!LO:TX:t=P:problem=kreska pseudotaktowa	!
.	.	1A	.	2c\	-bes	2rA	.
*	*	*	*	*	*Xij	*	*
8E\L	.	.	.	.	.	.	.
8D\J	.	.	.	.	.	.	.
1C/	.	.	.	2e\	.	4c/	iu-
!	!	!	!	!	!	!LO:TX:t=P:problem=kreska pseudotaktowa	!
.	.	.	.	.	.	4d\	.
=18-	=18-	=18-	=18-	=18-	=18-	=18-	=18-
.	.	1G	.	2c\	plu-	4e\	.
.	.	.	.	.	.	4c/	.
*	*	*	*	*custos:A	*	*	*
!	!	!	!	!LO:TX:t=P:problem=kreska pseudotaktowa	!	!	!
!LO:TX:t=P:problem=kreska pseudotaktowa	!	!	!	!	!	!	!
2GG/	-ant	.	.	2B\	-ant	2.d\	.
*lig	*	*Xlig	*	*	*	*	*
*	*	*lig	*	*	*	*	*
!	!	!	!	!LO:LB:g=original	!	!	!
*	*	*	*	*xywh-#106:1338,2002,5797,727	*	*	*
1D	iu-	1F	.	2.A/	iu-	.	.
.	.	.	.	.	.	4e\	.
.	.	.	.	.	.	1f\	.
.	.	.	.	4B\	.	.	.
=19-	=19-	=19-	=19-	=19-	=19-	=19-	=19-
1C	.	1G	.	1c	-ſtum	.	.
!	!	!	!	!	!	!LO:TX:t=P:problem=kreska pseudotaktowa	!
.	.	.	.	.	.	2e\	-ſtum
*Xlig	*	*Xlig	*	*	*	*	*
*custos:D	*	*	*	*	*	*	*
!LO:TX:t=P:problem=kreska pseudotaktowa	!	!	!	!	!	!	!
!	!	!	!	!	!	!LO:TX:t=P:problem=kreska pseudotaktowa	!
1F	-ſtum	0F,<	-ſtum	2A,</	.	1f	.
!	!	!	!	!LO:TX:t=P:problem=kreska pseudotaktowa	!	!	!
.	.	.	.	2A/	a-	.	.
=20-	=20-	=20-	=20-	=20-	=20-	=20-	=20-
!LO:LB:g=original	!	!LO:TX:t=P:problem=kreska pseudotaktowa	!	!	!	!	!
*xywh-#271:7135,3014,5946,676	*	*	*	*	*	*	*
2r	.	.	.	2A/	-pe-	2r	.
!LO:TX:t=P:problem=kreska pseudotaktowa	!	!	!	!	!	!	!
2D/	a-	.	.	2A/	-ri-	2f\	a-
2D/	-pe-	1F	a-	4A/	-a-	2f\	-pe-
.	.	.	.	4G/	-[[tur]]-	.	.
!LO:TX:t=P:problem=kreska pseudotaktowa	!	!	!	!	!	!LO:TX:t=P:problem=kreska pseudotaktowa	!
2D/	-ri-	.	.	4A/	.	2f\	-ri-
!	!	!	!	!LO:TX:t=P:problem=kreska pseudotaktowa	!	!	!
.	.	.	.	4B\	.	.	.
=21-	=21-	=21-	=21-	=21-	=21-	=21-	=21-
2C/	-a-	1G	-pe-	4c\	.	2e\	-a-
.	.	.	.	4C/	.	.	.
2BB/	-tur	.	.	4D/	.	1d	-tur
.	.	.	.	4E/	.	.	.
1AA	ter-	1A	-ri-	4F/	.	.	.
.	.	.	.	8E/L	.	.	.
.	.	.	.	8D/J	.	.	.
!	!	!	!	!LO:TX:t=P:problem=kreska pseudotaktowa	!	!LO:TX:t=P:problem=kreska pseudotaktowa	!
.	.	.	.	2E/	.	2c#X/	.
=22-	=22-	=22-	=22-	=22-	=22-	=22-	=22-
*	*	*lig	*	*	*	*	*
!LO:TX:t=P:problem=kreska pseudotaktowa	!	!	!	!	!	!	!
1D	-ra	1A	-a-	2F,</	-tur	2d\	ter-
.	.	.	.	2f\	a-	1A	-ra
2r	.	1c	.	2f\	-pe-	.	.
*	*ij	*	*	*	*	*	*ij
!LO:TX:t=P:problem=kreska pseudotaktowa	!	!	!	!LO:TX:t=P:problem=kreska pseudotaktowa	!	!	!
2AA/	a-	.	.	2f\	-ri-	1cny\	a-
*	*	*Xlig	*	*	*	*	*
=23-	=23-	=23-	=23-	=23-	=23-	=23-	=23-
!	!	!LO:TX:t=P:problem=kreska pseudotaktowa	!	!	!	!	!
2C/	-pe-	1G	-tur	2e\	-a-	.	.
!LO:TX:t=P:problem=kreska pseudotaktowa	!	!	!	!	!	!LO:TX:t=P:problem=kreska pseudotaktowa	!
2GG/	-ri-	.	.	1d	-tur	2B/	-pe-
*lig	*	*lig	*	*	*	*	*
1D	-a-	1F	ter-	.	.	2.A/	-ri-
.	.	.	.	2.f\	ter-	.	.
.	.	.	.	.	.	4B/	.
=24-	=24-	=24-	=24-	=24-	=24-	=24-	=24-
1C	.	1G	.	.	.	2.c/	-a-
.	.	.	.	8e\L	.	.	.
.	.	.	.	8d\J	.	.	.
!	!	!	!	!LO:TX:t=P:problem=kreska pseudotaktowa	!	!	!
.	.	.	.	2e\	.	.	.
!	!	!	!	!	!	!LO:TX:t=P:problem=kreska pseudotaktowa	!
.	.	.	.	.	.	4B/	.
*Xlig	*	*Xlig	*	*	*	*	*
*	*	*lig	*	*	*	*	*
!LO:TX:t=P:problem=kreska pseudotaktowa	!	!	!	!	!	!	!
1FF	-tur	1F	.	1.f	-ra	4A/	.
*	*	*	*	*	*	*custos:A	*
.	.	.	.	.	.	4G/	tur
!	!	!	!	!	!	!LO:LB:g=original	!
*	*	*	*	*	*	*xywh-#19:7168,2515,5978,699	*
.	.	.	.	.	.	4A/	.
.	.	.	.	.	.	8G/L	.
!	!	!	!	!	!	!LO:TX:t=P:problem=kreska pseudotaktowa	!
.	.	.	.	.	.	8A/J	.
=25-	=25-	=25-	=25-	=25-	=25-	=25-	=25-
*lig	*	*	*	*	*	*	*
1BB-X	ter-	1D	.	.	.	0B-X	ter-
.	.	.	.	2d\	.	.	.
*	*	*Xlig	*	*	*	*	*
!	!	!LO:TX:t=P:problem=kreska pseudotaktowa	!	!	!	!	!
1AA	.	1D	-ra	2rc	.	.	.
.	.	.	.	1d\	et	.	.
*Xlig	*	*	*	*	*	*	*
=26-	=26-	=26-	=26-	=26-	=26-	=26-	=26-
*	*	*	*	*custos:f	*	*	*
!	!	!	!	!	!	!LO:TX:t=P:problem=kreska pseudotaktowa	!
2D,>/	-ra	1F	et	.	.	0A	-ra
*	*Xij	*	*	*	*	*	*Xij
!	!	!	!	!LO:TX:t=P:problem=kreska pseudotaktowa	!	!	!
!	!	!	!	!LO:LB:g=original	!	!	!
*	*	*	*	*xywh-#106:1338,2613,5777,785	*	*	*
1D	et	.	.	2.f\	ger-	.	.
.	.	1F	ger-	.	.	.	.
.	.	.	.	4e\	.	.	.
2.F\	ger-	.	.	2d\	-mi-	.	.
=27-	=27-	=27-	=27-	=27-	=27-	=27-	=27-
*	*	*custos:F	*	*	*	*	*
.	.	1G	-mi-	2.c\	-net	1rA	.
4E\	-mi-	.	.	.	.	.	.
!LO:TX:t=P:problem=kreska pseudotaktowa	!	!	!	!	!	!	!
2D\	-net	.	.	.	.	.	.
!	!	!	!	!LO:TX:t=P:problem=kreska pseudotaktowa	!	!	!
.	.	.	.	4G/	Sal-	.	.
*lig	*	*lig	*	*	*	*	*
!	!	!LO:LB:g=original	!	!	!	!	!
*	*	*xywh-#181:1034,1926,5869,812	*	*	*	*	*
1D	Sal-	1F	-net	4A/	-ua-	2d\	et
.	.	.	.	4G/	.	.	.
.	.	.	.	4A/	-to-	2.f\	ger-
.	.	.	.	4B\	.	.	.
=28-	=28-	=28-	=28-	=28-	=28-	=28-	=28-
1C	.	1G	.	2.c\	.	.	.
.	.	.	.	.	.	4f\	mi-
!	!	!	!	!	!	!LO:TX:t=P:problem=kreska pseudotaktowa	!
.	.	.	.	.	.	2e\	.
.	.	.	.	4B\	.	.	.
*Xlig	*	*Xlig	*	*	*	*	*
*	*	*lig	*	*	*	*	*
!LO:TX:t=P:problem=kreska pseudotaktowa	!	!	!	!	!	!	!
1FF	.	1F	.	4A/	.	2d\	-net
.	.	.	.	4G/	.	.	.
!	!	!	!	!LO:TX:t=P:problem=kreska pseudotaktowa	!	!	!
.	.	.	.	2A/	.	2c/	.
=29-	=29-	=29-	=29-	=29-	=29-	=29-	=29-
!	!	!LO:TX:t=P:problem=kreska pseudotaktowa	!	!	!	!	!
2GG/	.	1D	.	2G/	.	4B-X/	Sal-
.	.	.	.	.	.	8A/L	-ua-
.	.	.	.	.	.	8G/J	.
!	!	!	!	!LO:TX:t=P:problem=♯ prawdopodobnie dopisany	!	!	!
!	!	!	!	!	!	!LO:TX:t=P:problem=kreska pseudotaktowa	!
2D/	-va-	.	.	2F#X/	.	2A/	-to-
*	*	*Xlig	*	*	*	*	*
*	*	*lig	*	*lig	*	*	*
*custos:D	*	*	*	*	*	*	*
!LO:TX:t=P:problem=kreska pseudotaktowa	!	!	!	!	!	!	!
1GG	-to-	1D	Sal-	1G	.	2Bny/	.
.	.	.	.	.	.	1d\	.
=30-	=30-	=30-	=30-	=30-	=30-	=30-	=30-
!LO:LB:g=original	!	!	!	!	!	!	!
*xywh-#271:7107,3557,5994,895	*	*	*	*	*	*	*
2D/	-rem	1F	.	1A	.	.	.
2.F\	.	.	.	.	.	4c/	.
!	!	!	!	!	!	!LO:TX:t=P:problem=kreska pseudotaktowa	!
.	.	.	.	.	.	4B/	.
*	*	*Xlig	*	*Xlig	*	*	*
*	*	*lig	*	*	*	*	*
.	.	1C	-ua-	1G	-rem	1c	-rem
4F\	ger-	.	.	.	.	.	.
!LO:TX:t=P:problem=kreska pseudotaktowa	!	!	!	!	!	!	!
2E\	-mi-	.	.	.	.	.	.
=31-	=31-	=31-	=31-	=31-	=31-	=31-	=31-
!	!	!	!	!LO:TX:t=P:problem=kreska pseudotaktowa	!	!	!
2.D/	-net	1F	.	1A	.	2d\	et
.	.	.	.	.	.	2.f\	ger-
4C/	.	.	.	.	.	.	.
*	*	*Xlig	*	*	*ij	*	*
2BB-X/	Sal-	1D	.	2.B-X\	Sal-	.	.
.	.	.	.	.	.	4f\	-mi-
!LO:TX:t=P:problem=kreska pseudotaktowa	!	!	!	!	!	!LO:TX:t=P:problem=kreska pseudotaktowa	!
2GG/	.	.	.	.	.	2g\	-net
.	.	.	.	4B-\	.	.	.
=32-	=32-	=32-	=32-	=32-	=32-	=32-	=32-
*	*	*lig	*	*	*	*	*
1D	.	1D	-to-	2A/	.	2f\	.
.	.	.	.	1A	-ua-	2d\	.
1AA	-va-	1E	.	.	.	4c/	Sal-
.	.	.	.	.	.	4d\	-ua-
.	.	.	.	2A/	-to-	2.e\	-to-
*	*	*Xlig	*	*	*	*	*
=33-	=33-	=33-	=33-	=33-	=33-	=33-	=33-
2.FF/	-to-	1F	.	0A	.	.	.
.	.	.	.	.	.	4d\	.
.	.	.	.	.	.	1d	.
4GG/	.	.	.	.	.	.	.
1AA	-rem	1E	-rem	.	.	.	.
.	.	.	.	.	.	2c#X/	rem
=34-	=34-	=34-	=34-	=34-	=34-	=34-	=34-
0D;<	.	0D;>	.	0A	-rem	0d;<	.
*	*	*	*	*	*Xij	*	*
!	!	!	!	!LO:LB:g=original	!	!LO:LB:g=original	!
=35||	=35||	=35||	=35||	=35||	=35||	=35||	=35||
*M2/1	*	*M2/1	*	*M2/1	*	*M2/1	*
*met(C|)	*	*met(C|)	*	*met(C|)	*	*met(C|)	*
!	!	!	!	!	!	!LO:TX:t=P:problem=kreska pseudotaktowa	!
*	*	*	*	*xywh-#106:1144,3234,6107,824	*	*xywh-#19:7197,3020,5822,826	*
1D	BE-	1F	Be-	1A	Be-	0r	.
*	*	*lig	*	*	*	*	*
2GG/	-ne-	1G	-ne-	2B\	-ne-	.	.
!LO:TX:t=P:problem=kreska pseudotaktowa	!	!	!	!LO:TX:t=P:problem=kreska pseudotaktowa	!	!	!
2G\	-di-	.	.	2B\	-di-	.	.
=36-	=36-	=36-	=36-	=36-	=36-	=36-	=36-
2.F\	-xi-	1A	.	4c\	-xi-	1c	Be-
.	.	.	.	4B\	.	.	.
.	.	.	.	4A/	.	.	.
!	!	!	!	!LO:TX:t=P:problem=kreska pseudotaktowa	!	!	!
4E\	.	.	.	4G/	.	.	.
*	*	*Xlig	*	*	*	*lig	*
2D/	-ſti	1A	-di-	4F/	.	1d	-ne-
.	.	.	.	4D/	-ſti	.	.
!LO:TX:t=P:problem=kreska pseudotaktowa	!	!	!	!	!	!	!
2D/	.	.	.	2.d\	Do-	.	.
=37-	=37-	=37-	=37-	=37-	=37-	=37-	=37-
2.AA/	Do-	1A	-xi-	.	.	1e	.
.	.	.	.	8c\L	.	.	.
.	.	.	.	8B\J	.	.	.
.	.	.	.	4c#X\	.	.	.
!	!	!	!	!LO:TX:t=P:problem=kreska pseudotaktowa	!	!	!
4BB/	.	.	.	4d\	.	.	.
*	*	*	*	*	*	*Xlig	*
!	!	!LO:TX:t=P:problem=kreska pseudotaktowa	!	!	!	!	!
2C/	.	1A,<	-sti	2e\	.	2e\	-di-
*custos:AA	*	*	*	*	*	*	*
!LO:TX:t=P:problem=kreska pseudotaktowa	!	!	!	!	!	!	!
2D/	-mi-	.	.	1d\	.	1f\	-xi-
=38-	=38-	=38-	=38-	=38-	=38-	=38-	=38-
!LO:TX:t=P:problem=kreska pseudotaktowa	!	!	!	!	!	!	!
!LO:PB:g=original	!	!	!	!	!	!	!
*xywh-#272:1220,447,5798,892	*	*	*	*	*	*	*
0AA	-ne	1A	Do-	.	.	.	.
!	!	!	!	!LO:TX:a:t=P:problem=♯ above	!	!	!
.	.	.	.	4c#X\	.	4e\	.
!	!	!	!	!LO:TX:t=P:problem=kreska pseudotaktowa	!	!LO:TX:t=P:problem=kreska pseudotaktowa	!
.	.	.	.	4B\	.	4d\	.
!	!	!	!	!	!	!	!
.	.	1A	-mi-	2c#y\	-mi-	2e\	.
!	!	!	!	!LO:TX:a:t=P:problem=♯ above	!	!	!
.	.	.	.	2c#X\	-ne	2e\	-ſti
=39-	=39-	=39-	=39-	=39-	=39-	=39-	=39-
*	*	*custos:A	*	*	*	*	*
!	!	!LO:TX:t=P:problem=kreska pseudotaktowa	!	!	!	!	!
2.D/	ter-	1A	-ne	2d\	.	2f\	Do-
!	!	!	!	!	!	!LO:TX:t=P:problem=kreska pseudotaktowa	!
.	.	.	.	1A	ter-	2d\	-mi-
4E\	.	.	.	.	.	.	.
*	*	*lig	*	*	*	*	*
!	!	!LO:LB:g=original	!	!	!	!	!
*	*	*xywh-#181:1010,2547,5797,800	*	*	*	*	*
2F\	.	1A	ter-	.	.	2c,</	-ne
!LO:TX:t=P:problem=kreska pseudotaktowa	!	!	!	!LO:TX:t=P:problem=kreska pseudotaktowa	!	!	!
2D/	-ram	.	.	2F/	.	1f\	ter-
=40-	=40-	=40-	=40-	=40-	=40-	=40-	=40-
1C	tu-	1c	.	1G	-ram	.	.
!	!	!	!	!	!	!LO:TX:t=P:problem=kreska pseudotaktowa	!
.	.	.	.	.	.	2e\	.
*	*	*Xlig	*	*	*	*	*
!	!	!LO:TX:t=P:problem=kreska pseudotaktowa	!	!	!	!	!
2FF,</	-am	1A,<	-ra	4F/	tu-	2f\	-ram
.	.	.	.	4G/	.	.	.
!LO:TX:t=P:problem=kreska pseudotaktowa	!	!	!	!	!	!	!
!LO:TX:t=P::problem=kreska pseudotaktowa&colon;między nutą a kropką	!	!	!	!	!	!	!
2.FF/	ter-	.	.	4A/	.	4F/	ter-
!	!	!	!	!LO:TX:t=P:problem=kreska pseudotaktowa	!	!	!
.	.	.	.	4B\	.	4G/	.
=41-	=41-	=41-	=41-	=41-	=41-	=41-	=41-
*	*	*lig	*	*	*	*	*
.	.	1A	tu-	2cny\	-am	4A/	.
4GG/	.	.	.	.	.	4B/	.
*	*	*	*	*	*ij	*	*
4AA/	.	.	.	1c	ter-	4c/	.
!LO:TX:t=P:problem=kreska pseudotaktowa	!	!	!	!	!	!LO:TX:t=P:problem=kreska pseudotaktowa	!
4BB/	.	.	.	.	.	4d\	.
4C/	.	1G	.	.	.	4e\	.
4D/	.	.	.	.	.	4f\	.
!	!	!	!	!LO:TX:t=P:problem=kreska pseudotaktowa	!	!	!
4E\	.	.	.	2c\	-ram	2g\	.
!LO:TX:t=P:problem=kreska pseudotaktowa	!	!	!	!	!	!	!
4F\	.	.	.	.	.	.	.
*	*	*Xlig	*	*	*	*	*
=42-	=42-	=42-	=42-	=42-	=42-	=42-	=42-
*	*	*lig	*	*	*	*	*
2G\	.	1G	-am	4B\	tu-	2d\	-ram
*	*	*	*	*custos:B	*	*	*
.	.	.	.	4A/	.	.	.
!	!	!	!	!LO:LB:g=original	!	!	!
*	*	*	*	*xywh-#106:1338,3873,5816,1017	*	*	*
2E\	-ram	.	.	4B\	am	1g	tu-
.	.	.	.	4c\	.	.	.
!LO:TX:t=P:problem=kreska pseudotaktowa	!	!LO:TX:t=P:problem=kreska pseudotaktowa	!	!	!	!	!
1D	tu-	1A	.	1d	ter-	.	.
!	!	!	!	!	!	!LO:TX:t=P:problem=kreska pseudotaktowa	!
.	.	.	.	.	.	2f#X\	.
*	*	*Xlig	*	*	*	*	*
=43-	=43-	=43-	=43-	=43-	=43-	=43-	=43-
*	*	*lig	*	*	*	*	*
!LO:TX:t=P:problem=kreska pseudotaktowa	!	!	!	!LO:TX:t=P:problem=kreska pseudotaktowa	!	!	!
1GG	-am	1G	a-	1B	-ram	2g\	-am
*	*	*	*	*	*Xij	*	*
.	.	.	.	.	.	2.d\	a-
2D/	a-	1F	.	2.A/	a-	.	.
.	.	.	.	.	.	4e\	.
2D/	-ver-	.	.	.	.	1fny\	.
.	.	.	.	4B\	-ver-	.	.
*	*	*Xlig	*	*	*	*	*
=44-	=44-	=44-	=44-	=44-	=44-	=44-	=44-
*	*	*lig	*	*	*	*	*
*	*	*	*	*	*	*custos:e	*
1C	-ti-	1G	-ver-	1.c	-ti-	.	.
!	!	!	!	!	!	!LO:LB:g=original	!
*	*	*	*	*	*	*xywh-#19:7207,3652,4957,933	*
.	.	.	.	.	.	4e\	.
!	!	!	!	!	!	!LO:TX:t=P:problem=kreska pseudotaktowa	!
.	.	.	.	.	.	4d\	.
2AA,</	-ſti	1A	.	.	.	2e\	.
!LO:TX:t=P:problem=kreska pseudotaktowa	!	!	!	!LO:TX:t=P:problem=kreska pseudotaktowa	!	!	!
2D/	ca-	.	.	2A/	-ſti	2f\	-ver-
*	*	*Xlig	*	*	*	*	*
=45-	=45-	=45-	=45-	=45-	=45-	=45-	=45-
2D/	-pti-	1A	-ti-	1r	.	1e	-ti-
2C#X/	-vi-	.	.	.	.	.	.
!	!	!LO:TX:t=P:problem=kreska pseudotaktowa	!	!	!	!	!
2.D/	-ta-	1A	-ſti	2r	.	2f\	-ſti
!	!	!	!	!LO:TX:t=P:problem=kreska pseudotaktowa	!	!LO:TX:t=P:problem=kreska pseudotaktowa	!
.	.	.	.	2f\	ca-	2d\	ca-
!LO:TX:t=P:problem=kreska pseudotaktowa	!	!	!	!	!	!	!
4E\	.	.	.	.	.	.	.
=46-	=46-	=46-	=46-	=46-	=46-	=46-	=46-
4F\	.	1A	ca-	2f\	-pti-	2d\	.
4G\	.	.	.	.	.	.	.
!LO:TX:t=P:problem=kreska pseudotaktowa	!	!	!	!	!	!	!
2A\	.	.	.	2e\	-ui-	2c#X/	-pti-
!LO:TX:t=P:problem=kreska pseudotaktowa	!	!	!	!	!	!	!
!LO:LB:g=original	!	!	!	!	!	!	!
*xywh-#272:1311,1213,2881,709	*	*	*	*	*	*	*
0D	-tem	1A	-pti-	4f\	-ta-	2.d\	-vi-
.	.	.	.	4e\	.	.	.
.	.	.	.	4d\	.	.	.
!	!	!	!	!	!	!LO:TX:t=P:problem=kreska pseudotaktowa	!
.	.	.	.	4c\	.	4e\	-ta-
=47-	=47-	=47-	=47-	=47-	=47-	=47-	=47-
*	*	*lig	*	*	*	*	*
.	.	1A	-ui-	0d	.	1f#X	.
1G	Ja-	1B	.	.	.	2g\	-tem
.	.	.	.	.	.	4g\	Ja-
.	.	.	.	.	.	4f#\	.
*	*	*Xlig	*	*	*	*	*
=48-	=48-	=48-	=48-	=48-	=48-	=48-	=48-
*	*	*lig	*	*	*	*	*
2Cny,</	-cob	1c	.	2c,\	-tem	4e\	.
.	.	.	.	.	.	4d\	.
*	*ij	*	*	*	*ij	*	*
!LO:TX:t=P:problem=kreska pseudotaktowa	!	!	!	!LO:TX:t=P:problem=kreska pseudotaktowa	!	!	!
2C/	ca-	.	.	2G/	ca-	2e\	.
!	!	!	!	!	!	!LO:TX:t=P:problem=kreska pseudotaktowa	!
2D/	-pti-	1A	.	2G/	-pti-	0.d	-cob
2D/	-vi-	.	.	2F#X/	-ui-	.	.
*	*	*Xlig	*	*	*	*	*
=49-	=49-	=49-	=49-	=49-	=49-	=49-	=49-
1GG	-ta-	1G	-ta-	2G/	-ta-	.	.
.	.	.	.	2B-X\	-tem	.	.
*	*	*	*	*	*Xij	*	*
!LO:TX:t=P:problem=kreska pseudotaktowa	!	!LO:TX:t=P:problem=kreska pseudotaktowa	!	!	!	!	!
0D	-tem	1F	-tem	0.A	Ja-	.	.
=50-	=50-	=50-	=50-	=50-	=50-	=50-	=50-
*	*	*lig	*	*	*	*	*
.	.	1F	Ja-	.	.	2r	.
.	.	.	.	.	.	1d	Ja-
1AA	Ja-	1E	.	.	.	.	.
.	.	.	.	.	.	2c#X/	-cob.
*	*	*Xlig	*	*	*	*	*
=51-	=51-	=51-	=51-	=51-	=51-	=51-	=51-
0D;<	-cob	0D;>	-cob.	0A;;	-cob	0d;<	.
*	*Xij	*	*	*	*	*	*
!LO:LB:g=original	!	!LO:LB:g=original	!	!LO:PB:g=original	!	!LO:PB:g=original	!
=52||	=52||	=52||	=52||	=52||	=52||	=52||	=52||
*M2/1	*	*M2/1	*	*M2/1	*	*M2/1	*
*met(C|)	*	*met(C|)	*	*met(C|)	*	*met(C|)	*
*xywh-#272:1380,1773,5660,823	*	*xywh-#181:1082,3145,5833,860	*	*xywh-#106:7368,626,6000,853	*	*xywh-#20:1027,619,5969,882	*
1D	GLo-	1F	Glo-	1A	Glo-	2r	.
.	.	.	.	.	.	1f	Glo-
*	*	*lig	*	*	*	*	*
2BB-X/	-ri-	1G	-ri-	2d\	-ri-	.	.
!LO:TX:t=P:problem=kreska pseudotaktowa	!	!	!	!	!	!LO:TX:t=P:problem=kreska pseudotaktowa	!
2C/	-a	.	.	1c\	-a	2e\	-ri-
=53-	=53-	=53-	=53-	=53-	=53-	=53-	=53-
2.FF/	Pa-	1A	.	.	.	2f\	-a
!	!	!	!	!LO:TX:t=P:problem=kreska pseudotaktowa	!	!	!
.	.	.	.	2f\	Pa-	1d	Pa-
4GG/	.	.	.	.	.	.	.
*	*	*Xlig	*	*	*	*	*
!LO:TX:t=P:problem=kreska pseudotaktowa	!	!LO:TX:t=P:problem=kreska pseudotaktowa	!	!	!	!	!
1AA	.	1A	-a	1.e	-tri	.	.
!	!	!	!	!	!	!LO:TX:b:t=P:problem=♯ below	!
.	.	.	.	.	.	4c#X/	.
.	.	.	.	.	.	4B/	.
=54-	=54-	=54-	=54-	=54-	=54-	=54-	=54-
2AA,</	tri	1A	Pa-	.	.	1c#X	.
!LO:TX:t=P:problem=kreska pseudotaktowa	!	!	!	!	!	!	!
2AA/	et,	.	.	2e\	et	.	.
2D/	Fi-	1A	-tri	2f\	Fi-	2d\	-tri
!	!	!	!	!	!	!LO:TX:t=P:problem=kreska pseudotaktowa	!
4C#X/	.	.	.	4e\	.	2r	.
!	!	!	!	!LO:TX:t=P:problem=kreska pseudotaktowa	!	!	!
4BBny/	.	.	.	4d\	.	.	.
=55-	=55-	=55-	=55-	=55-	=55-	=55-	=55-
2C#y/	.	1A	et	2e\	.	2r	.
!LO:TX:t=P:problem=kreska pseudotaktowa	!	!	!	!	!	!	!
2D/	-li-	.	.	1d	.	2f\	et
!LO:TX:t=P:problem=kreska pseudotaktowa	!	!	!	!	!	!	!
1AA	-o	1A	Fi-	.	.	2f\	Fi-
!	!	!	!	!LO:TX:a:t=P:problem=♯ above	!	!	!
.	.	.	.	4c#X\	.	4e\	.
!	!	!	!	!LO:TX:t=P:problem=kreska pseudotaktowa	!	!LO:TX:t=P:problem=kreska pseudotaktowa	!
.	.	.	.	4B\	.	4d\	.
=56-	=56-	=56-	=56-	=56-	=56-	=56-	=56-
!	!	!	!	!LO:TX:a:t=P:problem=♯ above	!	!	!
2r	.	1A	-li-	2c#X\	-li-	2e\	.
!LO:TX:a:t=d	!	!	!	!	!	!	!
1D	et	.	.	2d\	-o	2f\	-li-
!	!	!LO:TX:t=P:problem=kreska pseudotaktowa	!	!LO:TX:t=P:problem=kreska pseudotaktowa	!	!LO:TX:t=P:problem=kreska pseudotaktowa	!
.	.	1A	-o	1A	.	1e	-o
!LO:TX:t=P:problem=kreska pseudotaktowa	!	!	!	!	!	!	!
2Cny/	Spi-	.	.	.	.	.	.
=57-	=57-	=57-	=57-	=57-	=57-	=57-	=57-
*lig	*	*	*	*	*	*	*
1D	-ri-	1A	et	1F	et	2r	.
.	.	.	.	.	.	1d	et
*col	*	*	*	*	*	*	*
2.AA/	.	1A	Spi-	1E	Spi-	.	.
!	!	!	!	!	!	!LO:TX:t=P:problem=kreska pseudotaktowa	!
.	.	.	.	.	.	2cny/	Spi-
*Xlig	*	*	*	*	*	*	*
!LO:TX:t=P:problem=kreska pseudotaktowa	!	!	!	!	!	!	!
4AA/	-tu-	.	.	.	.	.	.
*Xcol	*	*	*	*	*	*	*
=58-	=58-	=58-	=58-	=58-	=58-	=58-	=58-
*	*	*lig	*	*	*	*	*
2D/	-i	1A	-ri-	2.F/	-ri-	2d\	-ri-
2.F\	San-	.	.	.	.	4c/	.
!	!	!	!	!	!	!LO:TX:t=P:problem=kreska pseudotaktowa	!
.	.	.	.	4F/	-tu-	4B/	.
.	.	1c	.	2C/	-i	2A/	.
8E\L	.	.	.	.	.	.	.
8D\J	.	.	.	.	.	.	.
!LO:TX:t=P:problem=kreska pseudotaktowa	!	!	!	!	!	!	!
2E\	.	.	.	1cny\	San-	2G/	-tu-
*custos:F	*	*	*	*	*	*	*
*	*	*Xlig	*	*	*	*	*
=59-	=59-	=59-	=59-	=59-	=59-	=59-	=59-
!LO:LB:g=original	!	!	!	!	!	!	!
*xywh-#272:1323,2357,5832,857	*	*	*	*	*	*	*
2.F\	.	1A	-tu-	.	.	2F/	-i
!	!	!	!	!LO:TX:t=P:problem=kreska pseudotaktowa	!	!	!
.	.	.	.	2A/	-cto	2.f\	San-
4E\	.	.	.	.	.	.	.
!	!	!LO:TX:t=P:problem=kreska pseudotaktowa	!	!	!	!	!
2D/	.	1A	-i	2rc	.	.	.
.	.	.	.	.	.	8e\L	.
.	.	.	.	.	.	8d\J	.
*	*	*	*	*	*	*custos:f	*
!	!	!	!	!	!	!LO:TX:t=P:problem=kreska pseudotaktowa	!
!LO:TX:t=P:problem=kreska pseudotaktowa	!	!	!	!	!	!	!
2C/	.	.	.	2.e\	San-	2e\	.
=60-	=60-	=60-	=60-	=60-	=60-	=60-	=60-
*	*	*lig	*	*	*	*lig	*
!	!	!	!	!	!	!LO:LB:g=original	!
*	*	*	*	*	*	*xywh-#20:1319,1372,5508,712	*
1D	.	1A	San-	.	.	1f	.
.	.	.	.	4d\	.	.	.
.	.	.	.	1d	.	.	.
!LO:TX:a:t=2	!	!	!	!	!	!	!
*	*	*	*	*	*	*col	*
0E	.	1G	.	.	.	2.e\	.
*	*	*	*	*	*	*Xlig	*
!	!	!	!	!LO:TX:a:t=P:problem=♯ above	!	!	!
.	.	.	.	4c#X\	.	.	.
!	!	!	!	!LO:TX:t=P:problem=kreska pseudotaktowa	!	!LO:TX:t=P:problem=kreska pseudotaktowa	!
.	.	.	.	4B\	.	4d\	.
*	*	*Xlig	*	*	*	*Xcol	*
=61-	=61-	=61-	=61-	=61-	=61-	=61-	=61-
*	*	*lig	*	*	*	*	*
*	*	*	*	*custos:d	*	*	*
!	!	!	!	!LO:TX:a:t=P:problem=♯ above	!	!	!
.	.	1G	-cto	1c#X	.	4e\	.
.	.	.	.	.	.	4f\	.
.	.	.	.	.	.	1g	.
!LO:TX:t=P:problem=kreska pseudotaktowa	!	!LO:TX:t=P:problem=kreska pseudotaktowa	!	!	!	!	!
!	!	!	!	!LO:LB:g=original	!	!	!
*	*	*	*	*xywh-#106:7387,1343,6029,756	*	*	*
1D	.	1A,<	.	2.d\	.	.	.
.	.	.	.	.	.	2f#X\	cto
.	.	.	.	4cny\	.	.	.
*	*	*Xlig	*	*	*	*	*
=62-	=62-	=62-	=62-	=62-	=62-	=62-	=62-
*	*	*lig	*	*	*	*	*
!	!	!	!	!	!	!LO:TX:t=P:problem=kreska pseudotaktowa	!
2GG,</	-cto	1G	Si-	2B\	.	1g	.
!LO:TX:t=P:problem=kreska pseudotaktowa	!	!	!	!LO:TX:t=P:problem=kreska pseudotaktowa	!	!	!
2C/	Si-	.	.	2c\	.	.	.
2D\	-cut	1F	.	4A/	.	1r	.
.	.	.	.	4G/	.	.	.
2.F\	e-	.	.	4A/	.	.	.
.	.	.	.	4B\	.	.	.
*	*	*Xlig	*	*	*	*	*
=63-	=63-	=63-	=63-	=63-	=63-	=63-	=63-
*	*	*lig	*	*	*	*	*
!	!	!	!	!LO:TX:t=P:problem=kreska pseudotaktowa	!	!	!
.	.	1G	-cut	0c	-cto	1r	.
8E\L	.	.	.	.	.	.	.
8D\J	.	.	.	.	.	.	.
!LO:TX:t=P:problem=kreska pseudotaktowa	!	!	!	!	!	!	!
2E\	.	.	.	.	.	.	.
!	!	!LO:TX:t=P:problem=kreska pseudotaktowa	!	!	!	!	!
2.F\	.	1A	.	.	.	2r	.
!	!	!	!	!	!	!LO:TX:t=P:problem=kreska pseudotaktowa	!
.	.	.	.	.	.	2c/	Si-
4E\	.	.	.	.	.	.	.
*	*	*Xlig	*	*	*	*	*
=64-	=64-	=64-	=64-	=64-	=64-	=64-	=64-
*lig	*	*	*	*	*	*	*
1D	.	1A	e-	2rc	.	2d\	-cut
.	.	.	.	1d	Si-	2.fny\	e-
*	*	*custos:A	*	*	*	*	*
!	!	!LO:TX:t=P:problem=kreska pseudotaktowa	!	!	!	!	!
1AA	.	1A	-rat	.	.	.	.
.	.	.	.	.	.	8e\L	.
.	.	.	.	.	.	8d\J	.
!	!	!	!	!LO:TX:t=P:problem=♯ below	!	!	!
!	!	!	!	!LO:TX:t=P:problem=kreska pseudotaktowa	!	!LO:TX:t=P:problem=kreska pseudotaktowa	!
.	.	.	.	2c#X\	-cut	2e\	.
*Xlig	*	*	*	*	*	*	*
=65-	=65-	=65-	=65-	=65-	=65-	=65-	=65-
!	!	!LO:TX:t=P:problem=kreska pseudotaktowa	!	!	!	!	!
!	!	!LO:LB:g=original	!	!	!	!	!
*	*	*xywh-#181:1058,3886,5797,836	*	*	*	*	*
2D,</	-rat	1A	in	2.d\	e-	1f	-rat
!LO:TX:t=P:problem=kreska pseudotaktowa	!	!	!	!	!	!	!
2D/	in	.	.	.	.	.	.
.	.	.	.	4d\	-rat	.	.
2D/	prin-	1A	prin-	2d\	.	2.f\	in
4D/	-ci-	.	.	2D/	in	.	.
!LO:TX:t=P:problem=kreska pseudotaktowa	!	!	!	!	!	!	!
4E\	.	.	.	.	.	4e\	prin-
=66-	=66-	=66-	=66-	=66-	=66-	=66-	=66-
4F\	.	1A	-ci-	4D/	prin-	2d\	-ci-
4G\	.	.	.	4E/	.	.	.
!	!	!	!	!	!	!LO:TX:t=P:problem=kreska pseudotaktowa	!
4A\	.	.	.	4F/	-ci-	2c/	-pi-
!LO:TX:t=P:problem=kreska pseudotaktowa	!	!	!	!LO:TX:t=P:problem=kreska pseudotaktowa	!	!	!
4G\	.	.	.	4G/	.	.	.
!	!	!LO:TX:t=P:problem=kreska pseudotaktowa	!	!	!	!	!
4F\	.	1A	-pi-	4A/	.	2c/	-o
4E\	.	.	.	4G/	.	.	.
*custos:D	*	*	*	*	*	*	*
1D\	.	.	.	4F/	.	2d\	in
.	.	.	.	4E/	.	.	.
=67-	=67-	=67-	=67-	=67-	=67-	=67-	=67-
!	!	!LO:TX:t=P:problem=kreska pseudotaktowa	!	!	!	!	!
.	.	1A,<	-o	4F/	.	2d\	prin-
.	.	.	.	4E/	.	.	.
!LO:TX:t=P:problem=kreska pseudotaktowa	!	!	!	!	!	!	!
!LO:LB:g=original	!	!	!	!	!	!	!
*xywh-#272:1311,2951,5775,869	*	*	*	*	*	*	*
2D/	-pi-	.	.	4F/	.	4d\	-ci-
!	!	!	!	!LO:TX:t=P:problem=kreska pseudotaktowa	!	!LO:TX:t=P:problem=kreska pseudotaktowa	!
.	.	.	.	4G/	.	4e\	.
!	!	!LO:TX:t=P:problem=kreska pseudotaktowa	!	!	!	!	!
2D,</	-o	1A	et	2A/	.	4f\	.
.	.	.	.	.	.	4g\	.
1F\	et	.	.	2D/	-pi-	4a\	.
!	!	!	!	!	!	!LO:TX:t=P:problem=kreska pseudotaktowa	!
.	.	.	.	.	.	4g\	.
=68-	=68-	=68-	=68-	=68-	=68-	=68-	=68-
*	*	*lig	*	*	*	*	*
.	.	1A	nunc	2D/	-o	4f\	.
.	.	.	.	.	.	4e\	.
!LO:TX:t=P:problem=kreska pseudotaktowa	!	!	!	!LO:TX:t=P:problem=kreska pseudotaktowa	!	!	!
2D/	nunc	.	.	2F/	et	1f	.
1C	et	1c	.	2G/	nunc	.	.
.	.	.	.	2G/	.	2e\	-pi-
*	*	*Xlig	*	*	*	*	*
=69-	=69-	=69-	=69-	=69-	=69-	=69-	=69-
*	*	*	*	*	*	*custos:d	*
!	!	!	!	!	!	!LO:TX:t=P:problem=kreska pseudotaktowa	!
2D/	Sem-	1A	et	2F/	et	1d	-o
4C/	.	.	.	4E/	sem-	.	.
*	*	*	*	*custos:E	*	*	*
!	!	!	!	!LO:TX:t=P:problem=kreska pseudotaktowa	!	!	!
!LO:TX:t=P:problem=kreska pseudotaktowa	!	!	!	!	!	!	!
4BB/	.	.	.	4D/	.	.	.
*	*	*lig	*	*	*	*	*
!	!	!	!	!LO:LB:g=original	!	!LO:LB:g=original	!
*	*	*	*	*xywh-#106:7310,1886,6088,814	*	*xywh-#20:1295,2004,5483,737	*
2C/	.	1A	Sem-	2E/	.	2r	.
!	!	!	!	!	!	!LO:TX:t=P:problem=kreska pseudotaktowa	!
2D/	.	.	.	2F/	.	2d\	et
=70-	=70-	=70-	=70-	=70-	=70-	=70-	=70-
2.GG/	.	1G	.	4G/	.	1.d	nunc
.	.	.	.	4A/	.	.	.
.	.	.	.	4B\	.	.	.
!LO:TX:t=P:problem=kreska pseudotaktowa	!	!	!	!LO:TX:t=P:problem=kreska pseudotaktowa	!	!	!
4AA/	.	.	.	4cny\	.	.	.
*	*	*Xlig	*	*	*	*	*
*	*	*lig	*	*	*	*	*
2BB/	.	1G	-per	2d\	.	.	.
!	!	!	!	!	!	!LO:TX:t=P:problem=kreska pseudotaktowa	!
2C/	.	.	.	4c\	.	2e\	.
.	.	.	.	4B\	.	.	.
=71-	=71-	=71-	=71-	=71-	=71-	=71-	=71-
!	!	!LO:TX:t=P:problem=kreska pseudotaktowa	!	!	!	!	!
4FF/	.	1A	.	1c	.	2f\	et
4GG/	.	.	.	.	.	.	.
4AA/	.	.	.	.	.	4e\	.
!LO:TX:t=P:problem=kreska pseudotaktowa	!	!	!	!	!	!	!
4BB/	.	.	.	.	.	4d\	.
!LO:TX:t=P:problem=kreska pseudotaktowa	!	!	!	!	!	!LO:TX:t=P:problem=kreska pseudotaktowa	!
*lig	*	*Xlig	*	*	*	*	*
*	*	*lig	*	*	*	*	*
1C	.	1G	et	2c\	-per.	1e	Sem-
.	.	.	.	2.c\	Sem-	.	.
=72-	=72-	=72-	=72-	=72-	=72-	=72-	=72-
!	!	!LO:TX:t=P:problem=kreska pseudotaktowa	!	!	!	!	!
1D	.	1F	.	.	.	2d\	-per
.	.	.	.	8B\L	.	.	.
.	.	.	.	8A\J	.	.	.
!	!	!	!	!LO:TX:t=P:problem=kreska pseudotaktowa	!	!	!
.	.	.	.	2B\	-p(er)	1f	et
*Xlig	*	*Xlig	*	*	*	*	*
*	*	*lig	*	*	*	*	*
!LO:TX:t=P:problem=kreska pseudotaktowa	!	!	!	!	!	!	!
1C	.	1G	in	1c	et	.	.
!	!	!	!	!	!	!LO:TX:t=P:problem=kreska pseudotaktowa	!
.	.	.	.	.	.	2e\	in
=73-	=73-	=73-	=73-	=73-	=73-	=73-	=73-
2FF,</	-per	1A	.	2c\	.	2f\	.
!	!	!	!	!LO:TX:t=P:problem=kreska pseudotaktowa	!	!	!
1F	et	.	.	2c\	in	1f	Sae-
*	*	*Xlig	*	*	*	*	*
.	.	1A	Sae-	4c\	Sae-	.	.
.	.	.	.	4A/	.	.	.
!LO:TX:t=P:problem=kreska pseudotaktowa	!	!	!	!	!	!LO:TX:t=P:problem=kreska pseudotaktowa	!
2D/	in	.	.	1d\	.	2f\	-cu-
=74-	=74-	=74-	=74-	=74-	=74-	=74-	=74-
2A\	Sae-	1A	-cu-	.	.	1.e	-la
!	!	!	!	!LO:TX:a:t=P:problem=♯ above	!	!	!
2AA/	-cu-	.	.	4c#X\	.	.	.
!	!	!	!	!LO:TX:t=P:problem=kreska pseudotaktowa	!	!	!
.	.	.	.	4B\	.	.	.
*custos:D	*	*	*	*	*	*	*
!LO:TX:t=P:problem=kreska pseudotaktowa	!	!	!	!	!	!	!
!	!	!LO:TX:t=P:problem=kreska pseudotaktowa	!	!	!	!	!
1AA	-la	1A	-la	2c#y\	.	.	.
!	!	!	!	!LO:TX:a:t=P:problem=♯ above	!	!LO:TX:t=P:problem=kreska pseudotaktowa	!
.	.	.	.	2c#X\	-cu-	2e\	.
=75-	=75-	=75-	=75-	=75-	=75-	=75-	=75-
!LO:LB:g=original	!	!	!	!	!	!	!
*xywh-#272:1300,3569,5798,1086	*	*	*	*	*	*	*
2.D/	Sae-	1A	Sae-	2d\	-la	2f\	.
!	!	!	!	!LO:TX:t=P:problem=kreska pseudotaktowa	!	!	!
.	.	.	.	2d\	Sae-	1f	Sae-
4E\	.	.	.	.	.	.	.
*	*	*lig	*	*	*	*	*
2F\	.	1A	-cu-	2cny\	.	.	.
!LO:TX:t=P:problem=kreska pseudotaktowa	!	!	!	!	!	!LO:TX:t=P:problem=kreska pseudotaktowa	!
2F\	-cu-	.	.	2.A/	-cu-	2d\	-cu-
=76-	=76-	=76-	=76-	=76-	=76-	=76-	=76-
1E	-lo-	1B	.	.	.	1e	-lo-
.	.	.	.	8G/L	.	.	.
.	.	.	.	8F/J	.	.	.
.	.	.	.	2G/	-lo-	.	.
*	*	*Xlig	*	*	*	*	*
*	*	*lig	*	*	*	*	*
!	!	!	!	!LO:TX:t=P:problem=kreska pseudotaktowa	!	!	!
2.AA/	-rum	1c	.	1A	-rum	2e\	-rum
.	.	.	.	.	.	1e\	.
!LO:TX:t=P:problem=kreska pseudotaktowa	!	!	!	!	!	!	!
4BB/	.	.	.	.	.	.	.
=77-	=77-	=77-	=77-	=77-	=77-	=77-	=77-
2C/	.	1A	.	2rF	.	.	.
!	!	!	!	!	!	!LO:TX:t=P:problem=kreska pseudotaktowa	!
2D/	.	.	.	2.d\	A-	2f\	.
*	*	*Xlig	*	*	*	*	*
4GG/	A-	1G	-lo-	.	.	2g\	.
4AA/	.	.	.	4c\	.	.	.
*	*	*	*	*	*	*lig	*
4BB/	.	.	.	2B\	.	1d\	.
4C/	.	.	.	.	.	.	.
=78-	=78-	=78-	=78-	=78-	=78-	=78-	=78-
!LO:TX:t=P:problem=kreska pseudotaktowa	!	!LO:TX:t=P:problem=kreska pseudotaktowa	!	!LO:TX:b:t=4	!	!	!
!	!	!	!	!LO:N:vis=00/	!	!	!
0D	.	1F	-rum	0.A	-men.	.	.
*	*	*	*	*	*	*col	*
.	.	.	.	.	.	2.f\	.
.	.	1F	A-	.	.	.	.
*	*	*lig	*	*	*	*Xlig	*
.	.	.	.	.	.	4e\	.
*	*	*	*	*	*	*Xcol	*
.	.	.	.	.	.	1d\	A-
=79-	=79-	=79-	=79-	=79-	=79-	=79-	=79-
1AA	men.	1E	.	.	.	.	.
.	.	.	.	.	.	2c#X/	-men.
*	*	*Xlig	*	*	*	*	*
!LO:TX:a:t=A M D G. B V. M. H.\nsit Labor iſte. p peccasi	!	!	!	!	!	!	!
!LO:N:vis=0.	!	!LO:N:vis=0.	!	!LO:N:vis=0.	!	!LO:N:vis=0	!
1D;<	.	1D;>	-men.	1A;<	.	1d;<	.
!LO:PB:g=original	!	!LO:PB:g=original	!	!LO:LB:g=original	!	!LO:LB:g=original	!
=80||	=80||	=80-	=80-	=80-	=80-	=80||	=80||
*-	*-	*-	*-	*-	*-	*-	*-
!!!system-decoration: [(s1,s2,s3,s4)]
!!!RDF**kern: < = below
!!!RDF**kern: > = above
!!!ENC: Marta Chmielewska
!!!END: 2021-03-18
!!!ENC: Andrzej Kubiczek
!!!END: 2021-02-24
!!!ENC-iiif: Konrad Tyszka
!!!END-iiif: 2022-08-31
